material/.icons/material/nativescript.svg

<svg xmlns="http://www.w3.org/2000/svg" viewBox="0 0 24 24"><path d="M7.5 3h9C19 3 21 5 21 7.5v9c0 2.5-2 4.5-4.5 4.5h-9C5 21 3 19 3 16.5v-9C3 5 5 3 7.5 3M6 13.5v3A1.5 1.5 0 007.5 18H9v-7.5l6 7.5h1.5a1.5 1.5 0 001.5-1.5v-3a1.5 1.5 0 011.5-1.5 1.5 1.5 0 01-1.5-1.5v-3A1.5 1.5 0 0016.5 6H15v7.5L9 6H7.5A1.5 1.5 0 006 7.5v3A1.5 1.5 0 014.5 12 1.5 1.5 0 016 13.5z"/></svg>

<?xml version="1.0" encoding="UTF-8"?><!DOCTYPE svg PUBLIC "-//W3C//DTD SVG 1.1//EN" "http://www.w3.org/Graphics/SVG/1.1/DTD/svg11.dtd"><svg xmlns="http://www.w3.org/2000/svg" xmlns:xlink="http://www.w3.org/1999/xlink" version="1.1" id="mdi-nativescript" width="24" height="24" viewBox="0 0 24 24"><path d="M7.5,3H16.5C19,3 21,5 21,7.5V16.5C21,19 19,21 16.5,21H7.5C5,21 3,19 3,16.5V7.5C3,5 5,3 7.5,3M6,13.5V16.5A1.5,1.5 0 0,0 7.5,18H9V10.5L15,18H16.5A1.5,1.5 0 0,0 18,16.5V13.5A1.5,1.5 0 0,1 19.5,12A1.5,1.5 0 0,1 18,10.5V7.5A1.5,1.5 0 0,0 16.5,6H15V13.5L9,6H7.5A1.5,1.5 0 0,0 6,7.5V10.5A1.5,1.5 0 0,1 4.5,12A1.5,1.5 0 0,1 6,13.5Z" /></svg>
